airbyte-config/init/src/main/resources/icons/gridly.svg

<svg width="200" height="118" viewBox="0 0 200 118" fill="none" xmlns="http://www.w3.org/2000/svg"><g clip-path="url(#clip0_910_1917)"><path d="M190.967 39.1138L139.131 7.047L119.854 18.905C117.203 20.4449 115.009 22.6639 113.5 25.3334C111.991 28.0029 111.22 31.0265 111.267 34.0929C111.315 37.1594 112.178 40.1579 113.768 42.7797C115.359 45.4015 117.619 47.552 120.317 49.0097L128.86 54.2248L171.873 81.1808L190.7 69.4988C193.457 68.0473 195.77 65.8756 197.392 63.2146C199.014 60.5536 199.885 57.5028 199.912 54.3862C199.94 51.2697 199.123 48.2039 197.548 45.5148C195.973 42.8257 193.699 40.6137 190.967 39.1138" fill="#FBAF17"/><path d="M171.892 81.2395L128.88 54.2836L100.205 71.9304V117.994H100.257C108.712 118.003 116.985 115.544 124.064 110.92L171.892 81.2395Z" fill="#E53182"/><path d="M100.081 71.976L78.432 58.6186L27.5538 27.4514C21.0369 31.5127 14.5199 35.4893 8.09411 39.6484C5.63073 41.2116 3.59889 43.3682 2.18477 45.9205C0.770642 48.4729 0.019443 51.3394 0 54.2575C0.000314632 57.3824 0.849304 60.4486 2.45627 63.1285C4.06324 65.8084 6.36781 68.0012 9.12379 69.4727L76.3726 110.901C83.4425 115.531 91.7095 117.996 100.16 117.993V71.9304" fill="#9643DC"/><path d="M27.554 27.4514L78.4321 58.6186L71.0353 54.0554L92.0461 41.4281C94.5139 39.8739 96.5474 37.7193 97.9569 35.1657C99.3663 32.612 100.106 29.7426 100.106 26.8256C100.106 23.9086 99.3663 21.0392 97.9569 18.4855C96.5474 15.9319 94.5139 13.7773 92.0461 12.2231L72.1693 0L27.7364 27.3406L27.554 27.4514Z" fill="#17C0FF"/></g><defs><clipPath id="clip0_910_1917"><rect width="200" height="118" fill="white"/></clipPath></defs></svg>

<svg xmlns="http://www.w3.org/2000/svg" width="200" height="118" fill="none"><g clip-path="url(#a)"><path fill="#FBAF17" d="M190.967 39.114 139.131 7.047l-19.277 11.858a17.255 17.255 0 0 0-6.086 23.875 17.255 17.255 0 0 0 6.549 6.23l8.543 5.215 43.013 26.956L190.7 69.499a17.247 17.247 0 0 0 9.212-15.113 17.247 17.247 0 0 0-8.945-15.272"/><path fill="#E53182" d="M171.892 81.24 128.88 54.284 100.205 71.93v46.064h.052a43.448 43.448 0 0 0 23.807-7.074l47.828-29.68Z"/><path fill="#9643DC" d="M100.081 71.976 78.432 58.619 27.554 27.45c-6.517 4.062-13.034 8.038-19.46 12.197A17.437 17.437 0 0 0 0 54.258a17.253 17.253 0 0 0 9.124 15.215L76.373 110.9a43.39 43.39 0 0 0 23.787 7.092V71.93"/><path fill="#17C0FF" d="M27.554 27.451 78.432 58.62l-7.397-4.564 21.011-12.627a17.254 17.254 0 0 0 8.06-14.602 17.26 17.26 0 0 0-8.06-14.603L72.17 0 27.736 27.34l-.182.111Z"/></g><defs><clipPath id="a"><path fill="#fff" d="M0 0h200v118H0z"/></clipPath></defs></svg>
